svgs/light/airplay.svg

<svg xmlns="http://www.w3.org/2000/svg" viewBox="0 0 576 512"><!-- Font Awesome Pro 6.0.0-alpha2 by @fontawesome - https://fontawesome.com License - https://fontawesome.com/license (Commercial License) --><path d="M496 32H80C35.875 32 0 67.875 0 112V336C0 380.125 35.875 416 80 416C88.844 416 96 408.844 96 400S88.844 384 80 384C53.531 384 32 362.469 32 336V112C32 85.531 53.531 64 80 64H496C522.469 64 544 85.531 544 112V336C544 362.469 522.469 384 496 384C487.156 384 480 391.156 480 400S487.156 416 496 416C540.125 416 576 380.125 576 336V112C576 67.875 540.125 32 496 32ZM310.617 297.375C298.121 284.875 277.754 284.875 265.258 297.375L137.305 425.375C117.312 445.5 131.682 480 160.047 480H415.953C444.318 480 458.687 445.5 438.57 425.375L310.617 297.375ZM160.047 448L288 320L415.953 448H160.047Z"/></svg>

<svg xmlns="http://www.w3.org/2000/svg" viewBox="0 0 576 512"><!--! Font Awesome Pro 6.3.0 by @fontawesome - https://fontawesome.com License - https://fontawesome.com/license (Commercial License) Copyright 2023 Fonticons, Inc. --><path d="M496 32h-416C35.88 32 0 67.88 0 112v224C0 380.1 35.88 416 80 416C88.84 416 96 408.8 96 400S88.84 384 80 384C53.53 384 32 362.5 32 336v-224C32 85.53 53.53 64 80 64h416C522.5 64 544 85.53 544 112v224c0 26.47-21.53 48-48 48c-8.844 0-16 7.156-16 16s7.156 16 16 16c44.13 0 80-35.88 80-80v-224C576 67.88 540.1 32 496 32zM310.6 297.4c-12.5-12.5-32.86-12.5-45.36 0l-127.1 128C117.3 445.5 131.7 480 160 480h255.9c28.37 0 42.73-34.5 22.62-54.63L310.6 297.4zM160 448l127.1-128L415.1 448H160z"/></svg>
